projects/plugins/jetpack/images/close.svg

<svg fill="none" height="10" viewBox="0 0 10 10" width="10" xmlns="http://www.w3.org/2000/svg"><path clip-rule="evenodd" d="m4.99954 6.06069 3.7123 3.7123 1.06066-1.06066-3.7123-3.7123 3.71231-3.71231-1.06066-1.060661-3.71231 3.712311-3.71232-3.712319-1.060658 1.060659 3.712318 3.71232-3.712309 3.71231 1.060659 1.06066z" fill="#1e1e1e" fill-rule="evenodd"/></svg>

<svg width="10" height="10" viewBox="0 0 10 10" fill="none" xmlns="http://www.w3.org/2000/svg">
<path fill-rule="evenodd" clip-rule="evenodd" d="M4.99954 6.06069L8.71184 9.77299L9.7725 8.71233L6.0602 5.00003L9.77251 1.28772L8.71185 0.227059L4.99954 3.93937L1.28722 0.227051L0.226562 1.28771L3.93888 5.00003L0.226571 8.71234L1.28723 9.773L4.99954 6.06069Z" fill="#1E1E1E"/>
</svg>
